X:93
T:True Briton. JJo8.093, The
%%VWML:JohnsonVol8-2184-p47-0
F:http://www.vwml.org/record/JohnsonVol8/2184/p47
Z:Transcribed by Simon Furey and Lewis Jones
Z:vmp.Simon Wilson 2013 www.village-music-project.org.uk
Z:Dance added by John Chambers 2017
M:6/8
L:1/8
%Q:3/8=100
K:Bb
|: g^fg   dgf | g3  d2e  | dcB  ABc | BAB  G3 :|\
|: (Bd)f- fdB | cAF cAF  | dcB  ABc | BAB  G3 :|
|: dg^f   gab | ag^f gdB | dg^f gab | ag^f g3 :|\
|: fed    efg | cde  ABc | FAc  dBG | cA^F G3 :|
W: First Man foot it to the 2d Wo. and not turn .|
W:1st Wo. and 2d Man the same :|| Lead down
W:one Cu. up again and cast off :||: foot it to the 3d
W:Wo. and not turn .| 1st Wo. and 3d Man the same :|
W:Lead down between the 3d Cu. up again and cast
W:off :||: Hands six round :| Lead up to the Top &
W:cast off :||: Right hands across with the 3d Cu. :|
W:Right hands and Left with the 2d Cu. :||:
W:
T:Polly Wright. JJo8.094
B:J.Johnson Choice Collection Vol 8 1758
Z:vmp.Simon Wilson 2013 www.village-music-project.org.uk
Z:Dance added by John Chambers 2017
N:The right edge of the page wasn't in the image; reasonable guesses made.
M:C|
L:1/8
%Q:1/2=90
K:C
|: c2eg fedc | Bcde fdcB | c2egB2dg | Aag^fg4 :|
|: GABc defg | ecaf dBGB | cecA fdBg | ecGBc4 :|
W: First and 2d Cu. right hands
W:across round .| Left hands
W:back again :| Cross over
W:two Cu. :|| Lead up to the
W:top and cast off :||: foot [it]
W:Corners and turn :|| Lead
W:out sides and turn :||:
W:
